client/src/assets/uicons-categorias/restaurantes.svg

<?xml version="1.0" encoding="UTF-8"?><svg id="Layer_2" xmlns="http://www.w3.org/2000/svg" viewBox="0 0 299.48 299.47"><defs><style>.cls-1{stroke-width:0px;}</style></defs><g id="Layer_1-2"><g id="pcFAke.tif"><path class="cls-1" d="m74.32,0c3.17,1.72,4.18,4.36,4.16,7.95-.12,22.6-.05,45.21-.07,67.81-.01,15.09-6.61,26.35-19.95,33.45-1.92,1.02-1.67,2.33-1.67,3.82,0,55.63,0,111.26-.03,166.9,0,2.03-.11,4.11-.55,6.08-1.91,8.38-9.85,14.08-18.44,13.37-8.62-.71-15.61-7.91-16.04-16.54-.06-1.17-.03-2.34-.03-3.51,0-55.34-.01-110.68.05-166.02,0-2.31-.65-3.48-2.75-4.67C6.77,101.79.25,91.22.11,77.22-.11,53.84.09,30.45,0,7.07-.01,3.71,1.43,1.58,4.14,0h3.51c3.17,1.72,4.18,4.36,4.16,7.95-.13,19.29-.06,38.59-.06,57.88,0,1.02,0,2.04,0,3.01h10.53v-3.31c0-19.2.07-38.4-.06-57.59-.03-3.6.98-6.23,4.16-7.95h3.51c3.17,1.72,4.18,4.36,4.16,7.95-.13,19.29-.06,38.59-.06,57.88,0,1.02,0,2.04,0,3.01h10.53c0-1.21,0-2.26,0-3.31,0-19.2.07-38.4-.06-57.59-.03-3.6.98-6.23,4.16-7.95h3.51c3.17,1.72,4.18,4.36,4.16,7.95-.13,19.29-.06,38.59-.06,57.88,0,1.02,0,2.04,0,3.01h10.53c0-1.2,0-2.26,0-3.31,0-19.2.07-38.4-.06-57.59-.03-3.6.98-6.23,4.16-7.95h3.51ZM11.99,80.81c1.93,9.26,6.92,15.49,15.31,18.91,5.49,2.23,6.08,2.96,6.08,8.77,0,57.01,0,114.02,0,171.03,0,5.37,1.93,8.12,5.74,8.19,3.92.07,5.95-2.76,5.95-8.28,0-57.01,0-114.02,0-171.03,0-5.67.65-6.55,5.89-8.59,6.6-2.57,11.3-7.14,13.96-13.72.66-1.63.97-3.41,1.49-5.29H11.99Z"/><path class="cls-1" d="m299.48,284.82c-.2.54-.44,1.07-.61,1.62-2.6,8.62-10.64,14.04-19.12,12.88-8.94-1.23-15.34-8.53-15.35-17.77-.04-27.66-.03-55.33.02-82.99,0-1.99-.46-3.45-1.95-4.85-3.34-3.13-6.56-6.39-9.7-9.72-5.39-5.69-8.21-12.53-8.23-20.34-.07-26.5-.72-53.01.16-79.48,1.2-35.89,17.47-63.94,47.17-84.17h7.6v284.82Zm-11.7-267.02c-1.74,1.59-3,2.64-4.14,3.81-17.89,18.1-27.17,39.9-27.39,65.33-.22,25.24-.04,50.48-.06,75.71,0,5.55,1.92,10.26,5.84,14.17,3.65,3.65,7.23,7.38,10.98,10.93,2.22,2.09,3.13,4.42,3.12,7.49-.08,28.06-.05,56.13-.05,84.19,0,1.07-.07,2.16.08,3.21.4,2.96,2.95,5.13,5.85,5.08,2.79-.04,5.24-2.12,5.66-4.96.17-1.15.1-2.33.1-3.5,0-85.85,0-171.69,0-257.54v-3.92Z"/><path class="cls-1" d="m149.77,66.67c45.82,0,83.13,37.37,83.04,83.19-.09,45.7-37.35,82.9-83.05,82.9-45.81,0-83.12-37.39-83.04-83.2.08-45.7,37.34-82.89,83.04-82.89Zm.02,154.39c39.34,0,71.38-32.11,71.33-71.45-.05-39.23-32-71.19-71.22-71.25-39.36-.06-71.44,31.95-71.47,71.29-.03,39.34,32.03,71.41,71.37,71.4Z"/><path class="cls-1" d="m150.89,261.5c-22.49-.18-42.21-5.7-60.2-17.03-1.66-1.04-3.46-3-3.73-4.76-.26-1.72.92-4.14,2.25-5.5,1.87-1.92,4.39-1.34,6.77-.15,6.95,3.48,13.72,7.49,20.99,10.09,38.86,13.89,82.94,1.63,109.33-30.02.69-.82,1.35-1.67,2.09-2.44,2.43-2.56,5.58-2.9,8.1-.9,2.58,2.05,3.2,5.68.8,8.3-5.11,5.6-10.11,11.42-15.88,16.29-20.66,17.44-44.75,25.86-70.51,26.12Z"/><path class="cls-1" d="m152.57,37.94c28.06.41,54.78,11.41,76.87,33.47,1.08,1.07,2.12,2.36,2.66,3.75.95,2.44-.26,5.23-2.45,6.6-2.3,1.44-5.12.98-7.48-1.1-4.83-4.23-9.39-8.84-14.6-12.55-19.97-14.23-42.32-20.04-66.75-18.01-12.48,1.03-24.25,4.47-35.47,9.93-3.84,1.87-7.2.99-8.79-2.21-1.58-3.19-.24-6.34,3.62-8.26,15.51-7.73,31.95-11.54,52.39-11.63Z"/><path class="cls-1" d="m75.06,230.59c-3.31-.04-6.09-2.92-5.98-6.21.1-3.13,2.75-5.66,5.88-5.63,3.3.03,6,2.89,5.92,6.25-.08,3.22-2.58,5.63-5.81,5.59Z"/><path class="cls-1" d="m95.96,147.78c1.8-21.71,12.07-37.71,31.98-47.15,3.49-1.65,6.76-.59,8.25,2.43,1.54,3.12.26,6.38-3.34,8.13-16.01,7.76-24.36,20.52-25.17,38.27-.17,3.7-2.72,6.22-6.06,6.08-3.68-.15-5.72-2.97-5.66-7.76Z"/><path class="cls-1" d="m143.75,101.81c0-3.32,2.61-5.89,5.96-5.85,3.19.04,5.8,2.57,5.88,5.7.09,3.27-2.53,5.92-5.87,5.97-3.39.04-5.97-2.46-5.97-5.81Z"/></g></g></svg>

<svg width="auto" height="auto" viewBox="0 0 300 300" fill="currentcolor" xmlns="http://www.w3.org/2000/svg">
<path d="M74.32 1.22003e-06C77.49 1.72 78.5 4.36 78.48 7.95C78.36 30.55 78.43 53.16 78.41 75.76C78.4 90.85 71.8 102.11 58.46 109.21C56.54 110.23 56.79 111.54 56.79 113.03C56.79 168.66 56.79 224.29 56.76 279.93C56.76 281.96 56.65 284.04 56.21 286.01C54.3 294.39 46.36 300.09 37.77 299.38C29.15 298.67 22.16 291.47 21.73 282.84C21.67 281.67 21.7 280.5 21.7 279.33C21.7 223.99 21.69 168.65 21.75 113.31C21.75 111 21.1 109.83 19 108.64C6.76999 101.79 0.249991 91.22 0.109991 77.22C-0.110009 53.84 0.0899907 30.45 -9.30363e-06 7.07C-0.0100093 3.71 1.42999 1.58 4.13999 1.22003e-06H7.64999C10.82 1.72 11.83 4.36 11.81 7.95C11.68 27.24 11.75 46.54 11.75 65.83C11.75 66.85 11.75 67.87 11.75 68.84H22.28V65.53C22.28 46.33 22.35 27.13 22.22 7.94C22.19 4.34 23.2 1.71 26.38 -0.00999878H29.89C33.06 1.71 34.07 4.35 34.05 7.94C33.92 27.23 33.99 46.53 33.99 65.82C33.99 66.84 33.99 67.86 33.99 68.83H44.52C44.52 67.62 44.52 66.57 44.52 65.52C44.52 46.32 44.59 27.12 44.46 7.93C44.43 4.33 45.44 1.7 48.62 -0.0199988H52.13C55.3 1.7 56.31 4.34 56.29 7.93C56.16 27.22 56.23 46.52 56.23 65.81C56.23 66.83 56.23 67.85 56.23 68.82H66.76C66.76 67.62 66.76 66.56 66.76 65.51C66.76 46.31 66.83 27.11 66.7 7.92C66.67 4.32 67.68 1.69 70.86 -0.0299988H74.37L74.32 1.22003e-06ZM11.99 80.81C13.92 90.07 18.91 96.3 27.3 99.72C32.79 101.95 33.38 102.68 33.38 108.49C33.38 165.5 33.38 222.51 33.38 279.52C33.38 284.89 35.31 287.64 39.12 287.71C43.04 287.78 45.07 284.95 45.07 279.43C45.07 222.42 45.07 165.41 45.07 108.4C45.07 102.73 45.72 101.85 50.96 99.81C57.56 97.24 62.26 92.67 64.92 86.09C65.58 84.46 65.89 82.68 66.41 80.8H11.99V80.81Z" fill="currentcolor"/>
<path d="M299.48 284.82C299.28 285.36 299.04 285.89 298.87 286.44C296.27 295.06 288.23 300.48 279.75 299.32C270.81 298.09 264.41 290.79 264.4 281.55C264.36 253.89 264.37 226.22 264.42 198.56C264.42 196.57 263.96 195.11 262.47 193.71C259.13 190.58 255.91 187.32 252.77 183.99C247.38 178.3 244.56 171.46 244.54 163.65C244.47 137.15 243.82 110.64 244.7 84.17C245.9 48.28 262.17 20.23 291.87 0H299.47V284.82H299.48ZM287.78 17.8C286.04 19.39 284.78 20.44 283.64 21.61C265.75 39.71 256.47 61.51 256.25 86.94C256.03 112.18 256.21 137.42 256.19 162.65C256.19 168.2 258.11 172.91 262.03 176.82C265.68 180.47 269.26 184.2 273.01 187.75C275.23 189.84 276.14 192.17 276.13 195.24C276.05 223.3 276.08 251.37 276.08 279.43C276.08 280.5 276.01 281.59 276.16 282.64C276.56 285.6 279.11 287.77 282.01 287.72C284.8 287.68 287.25 285.6 287.67 282.76C287.84 281.61 287.77 280.43 287.77 279.26C287.77 193.41 287.77 107.57 287.77 21.72V17.8H287.78Z" fill="currentcolor"/>
<path d="M149.77 66.67C195.59 66.67 232.9 104.04 232.81 149.86C232.72 195.56 195.46 232.76 149.76 232.76C103.95 232.76 66.64 195.37 66.72 149.56C66.8 103.86 104.06 66.67 149.76 66.67H149.77ZM149.79 221.06C189.13 221.06 221.17 188.95 221.12 149.61C221.07 110.38 189.12 78.42 149.9 78.36C110.54 78.3 78.46 110.31 78.43 149.65C78.4 188.99 110.46 221.06 149.8 221.05L149.79 221.06Z" fill="currentcolor"/>
<path d="M150.89 261.5C128.4 261.32 108.68 255.8 90.69 244.47C89.03 243.43 87.23 241.47 86.96 239.71C86.7 237.99 87.88 235.57 89.21 234.21C91.08 232.29 93.6 232.87 95.98 234.06C102.93 237.54 109.7 241.55 116.97 244.15C155.83 258.04 199.91 245.78 226.3 214.13C226.99 213.31 227.65 212.46 228.39 211.69C230.82 209.13 233.97 208.79 236.49 210.79C239.07 212.84 239.69 216.47 237.29 219.09C232.18 224.69 227.18 230.51 221.41 235.38C200.75 252.82 176.66 261.24 150.9 261.5H150.89Z" fill="currentcolor"/>
<path d="M152.57 37.94C180.63 38.35 207.35 49.35 229.44 71.41C230.52 72.48 231.56 73.77 232.1 75.16C233.05 77.6 231.84 80.39 229.65 81.76C227.35 83.2 224.53 82.74 222.17 80.66C217.34 76.43 212.78 71.82 207.57 68.11C187.6 53.88 165.25 48.07 140.82 50.1C128.34 51.13 116.57 54.57 105.35 60.03C101.51 61.9 98.15 61.02 96.56 57.82C94.98 54.63 96.32 51.48 100.18 49.56C115.69 41.83 132.13 38.02 152.57 37.93V37.94Z" fill="currentcolor"/>
<path d="M75.06 230.59C71.75 230.55 68.97 227.67 69.08 224.38C69.18 221.25 71.83 218.72 74.96 218.75C78.26 218.78 80.96 221.64 80.88 225C80.8 228.22 78.3 230.63 75.07 230.59H75.06Z" fill="currentcolor"/>
<path d="M95.96 147.78C97.76 126.07 108.03 110.07 127.94 100.63C131.43 98.98 134.7 100.04 136.19 103.06C137.73 106.18 136.45 109.44 132.85 111.19C116.84 118.95 108.49 131.71 107.68 149.46C107.51 153.16 104.96 155.68 101.62 155.54C97.94 155.39 95.9 152.57 95.96 147.78Z" fill="currentcolor"/>
<path d="M143.75 101.81C143.75 98.49 146.36 95.92 149.71 95.96C152.9 96 155.51 98.53 155.59 101.66C155.68 104.93 153.06 107.58 149.72 107.63C146.33 107.67 143.75 105.17 143.75 101.82V101.81Z" fill="currentcolor"/>
</svg>
